packages/icons/plugins/TipCoin.svg

<svg width="24" height="24" viewBox="0 0 24 24" xmlns="http://www.w3.org/2000/svg">
<path
            fill-rule="evenodd"
            clip-rule="evenodd"
            d="M12 2C6.47715 2 2 6.47715 2 12V20.5047C2 21.3305 2.66948 22 3.49533 22H12C17.5228 22 22 17.5228 22 12C22 6.47715 17.5228 2 12 2Z"
            fill="url(#paint0_linear_1927_27567)"
        />
        <path
            d="M7.67344 16.718C7.54433 16.5875 7.47205 16.4112 7.47226 16.2273C7.47247 16.0434 7.54516 15.8666 7.67457 15.7354L8.4109 14.999L8.35513 14.906C8.14516 14.5665 7.9938 14.194 7.90737 13.8039C7.83335 13.5063 7.80321 13.1993 7.81787 12.8926C7.83412 12.7107 7.92117 12.5421 8.06025 12.4232C8.19933 12.3043 8.37932 12.2446 8.56146 12.257C8.7436 12.2693 8.9133 12.3527 9.03402 12.4893C9.15474 12.6258 9.21682 12.8045 9.20688 12.9868C9.2042 13.1567 9.22354 13.326 9.26442 13.4907C9.35189 13.8916 9.5519 14.2587 9.84101 14.5491C9.98886 14.7089 10.168 14.8366 10.3673 14.9243C10.5667 15.012 10.782 15.0579 11.0001 15.0591C11.1032 15.058 11.205 15.035 11.2987 14.9917C11.3924 14.9483 11.4759 14.8856 11.5438 14.8077C11.8188 14.4655 11.7824 13.9828 11.3917 12.7397L11.3001 12.4541C11.0597 11.8096 10.9189 11.132 10.8826 10.4443C10.8936 9.91804 11.0965 9.41312 11.453 9.02444C11.8096 8.63577 12.2952 8.3901 12.8188 8.33361C13.4181 8.28161 14.0176 8.42285 14.5293 8.73664L14.6206 8.79066L15.3606 8.05061C15.4939 7.93224 15.6672 7.86907 15.845 7.874C16.0229 7.87893 16.1918 7.95159 16.3174 8.07714C16.4429 8.20269 16.5156 8.37165 16.5205 8.54948C16.5255 8.7273 16.4623 8.90058 16.3439 9.03389L15.6076 9.77022L15.6642 9.86233C15.8734 10.2023 16.0247 10.5747 16.112 10.9645C16.1855 11.2622 16.2157 11.5691 16.2015 11.8757C16.1967 11.9681 16.1736 12.0586 16.1335 12.1421C16.0934 12.2255 16.0371 12.3002 15.9679 12.3618C15.8987 12.4233 15.8179 12.4705 15.7304 12.5006C15.6429 12.5306 15.5503 12.543 15.4581 12.5368C15.3659 12.5307 15.2759 12.5063 15.1934 12.4649C15.1108 12.4236 15.0375 12.3662 14.9775 12.2961C14.9176 12.2259 14.8723 12.1445 14.8442 12.0566C14.8162 11.9686 14.806 11.8758 14.8142 11.7837C14.8171 11.6135 14.7975 11.4437 14.756 11.2787C14.6701 10.8772 14.4707 10.5091 14.1814 10.2184C14.0335 10.0586 13.8542 9.93104 13.6548 9.84352C13.4553 9.756 13.2398 9.71038 13.0216 9.7095C12.9185 9.71069 12.8167 9.73361 12.7229 9.77678C12.6291 9.81994 12.5453 9.88237 12.4771 9.96C12.203 10.3013 12.2383 10.7851 12.6307 12.0277L12.7215 12.3126C12.9613 12.9574 13.1018 13.6353 13.1381 14.3232C13.1281 14.8495 12.9256 15.3548 12.5691 15.7435C12.2125 16.1322 11.7265 16.3775 11.2028 16.433C10.604 16.485 10.005 16.3438 9.49396 16.03L9.40184 15.9751L8.66092 16.716C8.59617 16.781 8.51929 16.8326 8.43468 16.8679C8.35006 16.9032 8.25939 16.9214 8.16785 16.9216C8.07631 16.9218 7.98571 16.9039 7.90124 16.869C7.81677 16.834 7.7401 16.7827 7.67562 16.718L7.67344 16.718Z"
            fill="white"
        />
        <defs>
            <linearGradient id="paint0_linear_1927_27567" x1="12" y1="2" x2="12" y2="22" gradient-units="userSpaceOnUse">
                <stop stop-color="#F7931E" />
                <stop offset="1" stop-color="#FBB03B" />
            </linearGradient>
        </defs>
</svg>

<svg xmlns="http://www.w3.org/2000/svg" width="24" height="24">
    <path fill="url(#TipCoin_svg__a)" fill-rule="evenodd" d="M12 2C6.477 2 2 6.477 2 12v8.505C2 21.33 2.67 22 3.495 22H12c5.523 0 10-4.477 10-10S17.523 2 12 2Z" clip-rule="evenodd"/>
    <path fill="#fff" d="M7.673 16.718a.696.696 0 0 1 .002-.983L8.41 15l-.056-.093a3.558 3.558 0 0 1-.448-1.102 3.152 3.152 0 0 1-.09-.911.7.7 0 0 1 1.217-.404.7.7 0 0 1 .173.498c-.003.17.017.339.057.504.088.4.288.768.577 1.058a1.589 1.589 0 0 0 1.16.51.73.73 0 0 0 .543-.251c.275-.342.238-.825-.152-2.068l-.092-.286a6.772 6.772 0 0 1-.417-2.01 2.168 2.168 0 0 1 1.936-2.11c.6-.052 1.199.089 1.71.403l.092.054.74-.74a.7.7 0 0 1 .956.026.695.695 0 0 1 .027.957l-.736.736.056.092c.21.34.36.713.448 1.102.074.298.104.605.09.912a.699.699 0 0 1-1.225.42.695.695 0 0 1-.163-.512c.003-.17-.017-.34-.058-.505a2.137 2.137 0 0 0-.575-1.06 1.586 1.586 0 0 0-1.16-.51.735.735 0 0 0-.544.251c-.274.341-.239.825.154 2.068l.09.285c.24.644.38 1.322.417 2.01a2.163 2.163 0 0 1-1.935 2.11 2.802 2.802 0 0 1-1.709-.403l-.092-.055-.741.741a.7.7 0 0 1-.76.153.693.693 0 0 1-.225-.151h-.003Z"/>
    <defs>
        <linearGradient id="TipCoin_svg__a" x1="12" x2="12" y1="2" y2="22">
            <stop stop-color="#F7931E"/>
            <stop offset="1" stop-color="#FBB03B"/>
        </linearGradient>
    </defs>
</svg>
